icons-rebrand/svg/disappearing-pen-bold.svg

<svg width="32" height="32" viewBox="0 0 32 32" fill="none" xmlns="http://www.w3.org/2000/svg">
<path d="M21.9159 3.33294C22.4296 3.14054 23.0096 3.40024 23.203 3.91884C23.3964 4.43544 23.1347 5.01164 22.6171 5.20604C22.1835 5.36914 21.7958 5.61814 21.4667 5.94724L21.3739 6.04004C21.1786 6.23534 20.9227 6.33304 20.6669 6.33304C20.4111 6.33304 20.1552 6.23534 19.9599 6.04004C19.5693 5.64934 19.5693 5.01654 19.9599 4.62594L20.0526 4.53314C20.5848 4.00094 21.2118 3.59664 21.9159 3.33294Z" fill="#0F0F0F"/>
<path d="M17.7558 18.8302L19.1259 17.4601C19.5165 17.0694 20.1493 17.0693 20.5399 17.46C20.9305 17.8507 20.9305 18.4835 20.5399 18.8741L19.1698 20.2443C18.9745 20.4396 18.7186 20.5373 18.4628 20.5373C18.207 20.5373 17.9511 20.4396 17.7558 20.2443C17.3652 19.8536 17.3652 19.2208 17.7558 18.8302Z" fill="#0F0F0F"/>
<path d="M26.5049 6.52141C26.6953 6.82411 27.0205 6.99021 27.3535 6.99021C27.5351 6.99021 27.7187 6.94141 27.8838 6.83791C28.3516 6.54491 28.4932 5.92771 28.2002 5.45901C27.9912 5.12601 27.7461 4.81541 27.4639 4.53031C27.1758 4.24421 26.8575 3.99321 26.5166 3.78321C26.0469 3.49321 25.4307 3.63961 25.1406 4.11031C24.8515 4.58001 24.997 5.19621 25.4677 5.48631C25.6777 5.61621 25.8759 5.77241 26.0478 5.94241C26.2197 6.11711 26.374 6.31141 26.5049 6.52141Z" fill="#0F0F0F"/>
<path d="M26.7988 9.36536C26.9902 8.84676 27.5664 8.58306 28.083 8.77256C28.6016 8.96396 28.8662 9.53816 28.6757 10.0568C28.413 10.7697 28.0068 11.4045 27.4687 11.9455L27.3896 12.0246C27.1943 12.2199 26.9384 12.3176 26.6826 12.3176C26.4268 12.3176 26.1709 12.2199 25.9756 12.0246C25.585 11.6339 25.585 11.0011 25.9756 10.6105L26.0527 10.5334C26.3847 10.1994 26.6367 9.80576 26.7988 9.36536Z" fill="#0F0F0F"/>
<path d="M23.2363 13.3496L21.8662 14.7197C21.4756 15.1103 21.4756 15.7431 21.8662 16.1338C22.0615 16.3291 22.3174 16.4268 22.5732 16.4268C22.829 16.4268 23.0849 16.3291 23.2802 16.1338L24.6503 14.7637C25.0409 14.3731 25.0409 13.7403 24.6503 13.3496C24.2597 12.9589 23.627 12.959 23.2363 13.3496Z" fill="#0F0F0F"/>
<path d="M9.5898 27.0001L15 21.586C15.3906 21.1954 16.0235 21.1953 16.4141 21.586C16.8047 21.9767 16.8047 22.6095 16.4141 23.0001L10.997 28.4171C10.6269 28.7872 10.1132 29.0001 9.5898 29.0001H5C3.8975 29.0001 3 28.1026 3 27.0001V22.4103C3 21.8868 3.2129 21.3731 3.583 21.003L17.2207 7.36525C17.6114 6.97465 18.2442 6.97455 18.6348 7.36525C19.0254 7.75595 19.0254 8.38875 18.6348 8.77935L4.9971 22.4171L5 27.0001H9.5898Z" fill="#0F0F0F"/>
</svg>

<svg xmlns="http://www.w3.org/2000/svg" width="32" height="32" viewBox="0 0 32 32"><path d="M21.916 3.333a1.001 1.001 0 0 1 .701 1.873 3.22 3.22 0 0 0-1.15.741l-.093.093a.997.997 0 0 1-1.414 0 1 1 0 0 1 0-1.414l.093-.093a5.196 5.196 0 0 1 1.863-1.2ZM17.756 18.83l1.37-1.37a1 1 0 1 1 1.414 1.414l-1.37 1.37a.997.997 0 0 1-1.414 0 1 1 0 0 1 0-1.414ZM26.505 6.521A1 1 0 0 0 28.2 5.46a5.39 5.39 0 0 0-.736-.929 5.265 5.265 0 0 0-.947-.747 1 1 0 1 0-1.05 1.703c.21.13.409.286.58.456.173.175.327.37.458.58ZM26.799 9.365a1 1 0 0 1 1.877.691 5.22 5.22 0 0 1-1.207 1.89l-.08.079a.997.997 0 0 1-1.413 0 1 1 0 0 1 0-1.415l.077-.077c.332-.334.584-.727.746-1.168ZM23.236 13.35l-1.37 1.37a1 1 0 1 0 1.414 1.414l1.37-1.37a1 1 0 1 0-1.414-1.414ZM9.59 27 15 21.586A1 1 0 1 1 16.414 23l-5.417 5.417c-.37.37-.884.583-1.407.583H5c-1.103 0-2-.897-2-2v-4.59c0-.523.213-1.037.583-1.407L17.221 7.365a1 1 0 1 1 1.414 1.414L4.997 22.417 5 27h4.59Z"/></svg>
